src/assets/logo/FTD_logoBig.svg

<svg width="376" height="150" viewBox="0 0 376 150" fill="none" xmlns="http://www.w3.org/2000/svg">
<path d="M147.573 1.5L75 146.646L2.42705 1.5H147.573Z" stroke="#29166E" stroke-width="3" stroke-miterlimit="1.30541" stroke-linejoin="round"/>
<path d="M72.9141 99H65.4844L65.5312 93.5156H72.9141C74.7578 93.5156 76.3125 93.1016 77.5781 92.2734C78.8438 91.4297 79.7969 90.2031 80.4375 88.5938C81.0938 86.9844 81.4219 85.0391 81.4219 82.7578V81.0938C81.4219 79.3438 81.2344 77.8047 80.8594 76.4766C80.5 75.1484 79.9609 74.0312 79.2422 73.125C78.5234 72.2188 77.6406 71.5391 76.5938 71.0859C75.5469 70.6172 74.3438 70.3828 72.9844 70.3828H65.3438V64.875H72.9844C75.2656 64.875 77.3516 65.2656 79.2422 66.0469C81.1484 66.8125 82.7969 67.9141 84.1875 69.3516C85.5781 70.7891 86.6484 72.5078 87.3984 74.5078C88.1641 76.4922 88.5469 78.7031 88.5469 81.1406V82.7578C88.5469 85.1797 88.1641 87.3906 87.3984 89.3906C86.6484 91.3906 85.5781 93.1094 84.1875 94.5469C82.8125 95.9688 81.1641 97.0703 79.2422 97.8516C77.3359 98.6172 75.2266 99 72.9141 99ZM69.4688 64.875V99H62.4375V64.875H69.4688Z" fill="#29166E"/>
<path d="M50.4062 29.875V64H43.375V29.875H50.4062ZM64 44.4531V49.9375H48.4844V44.4531H64ZM65.6406 29.875V35.3828H48.4844V29.875H65.6406Z" fill="#C3251D"/>
<path d="M98.4219 29.875V64H91.4141V29.875H98.4219ZM108.922 29.875V35.3828H81.0781V29.875H108.922Z" fill="#C3251D"/>
<circle cx="19" cy="11" r="3.75" transform="rotate(-50 19 11)" fill="#EDEDED" stroke="#D9D9D9" stroke-width="0.5"/>
<rect x="16.8666" y="14.4315" width="1.14286" height="8" rx="0.571429" transform="rotate(-140 16.8666 14.4315)" fill="#D9D9D9"/>
<circle cx="131" cy="12" r="3.75" transform="rotate(50 131 12)" fill="#EDEDED" stroke="#D9D9D9" stroke-width="0.5"/>
<rect x="127.991" y="9.30313" width="1.14286" height="8" rx="0.571429" transform="rotate(-40 127.991 9.30313)" fill="#D9D9D9"/>
<circle cx="75" cy="127" r="3.75" transform="rotate(-90 75 127)" fill="#EDEDED" stroke="#D9D9D9" stroke-width="0.5"/>
<rect x="75.5714" y="131" width="1.14286" height="8" rx="0.571429" transform="rotate(180 75.5714 131)" fill="#D9D9D9"/>
<path d="M151.559 41.4062V67H146.285V41.4062H151.559ZM161.754 52.3398V56.4531H150.117V52.3398H161.754ZM162.984 41.4062V45.5371H150.117V41.4062H162.984ZM219.744 41.4062V67H214.488V41.4062H219.744ZM227.619 41.4062V45.5371H206.736V41.4062H227.619Z" fill="#C3251D"/>
<path d="M183.217 62.8867V67H169.594V62.8867H183.217ZM171.316 41.4062V67H166.043V41.4062H171.316ZM181.441 51.8301V55.8379H169.594V51.8301H181.441ZM183.199 41.4062V45.5371H169.594V41.4062H183.199ZM186.293 41.4062H195.838C197.795 41.4062 199.477 41.6992 200.883 42.2852C202.301 42.8711 203.391 43.7383 204.152 44.8867C204.914 46.0352 205.295 47.4473 205.295 49.123C205.295 50.4941 205.061 51.6719 204.592 52.6562C204.135 53.6289 203.484 54.4434 202.641 55.0996C201.809 55.7441 200.83 56.2598 199.705 56.6465L198.035 57.5254H189.738L189.703 53.4121H195.873C196.799 53.4121 197.566 53.248 198.176 52.9199C198.785 52.5918 199.242 52.1348 199.547 51.5488C199.863 50.9629 200.021 50.2832 200.021 49.5098C200.021 48.6895 199.869 47.9805 199.564 47.3828C199.26 46.7852 198.797 46.3281 198.176 46.0117C197.555 45.6953 196.775 45.5371 195.838 45.5371H191.566V67H186.293V41.4062ZM200.602 67L194.766 55.5918L200.338 55.5566L206.244 66.7539V67H200.602ZM239.133 45.7832L232.172 67H226.564L236.074 41.4062H239.643L239.133 45.7832ZM244.916 67L237.938 45.7832L237.375 41.4062H240.979L250.541 67H244.916ZM244.6 57.4727V61.6035H231.082V57.4727H244.6ZM262.934 55.7676H256.359L256.324 52.1465H261.844C262.816 52.1465 263.613 52.0234 264.234 51.7773C264.855 51.5195 265.318 51.1504 265.623 50.6699C265.939 50.1777 266.098 49.5801 266.098 48.877C266.098 48.0801 265.945 47.4355 265.641 46.9434C265.348 46.4512 264.885 46.0938 264.252 45.8711C263.631 45.6484 262.828 45.5371 261.844 45.5371H258.188V67H252.914V41.4062H261.844C263.332 41.4062 264.662 41.5469 265.834 41.8281C267.018 42.1094 268.02 42.5371 268.84 43.1113C269.66 43.6855 270.287 44.4121 270.721 45.291C271.154 46.1582 271.371 47.1895 271.371 48.3848C271.371 49.4395 271.131 50.4121 270.65 51.3027C270.182 52.1934 269.438 52.9199 268.418 53.4824C267.41 54.0449 266.092 54.3555 264.463 54.4141L262.934 55.7676ZM262.705 67H254.918L256.975 62.8867H262.705C263.631 62.8867 264.387 62.7402 264.973 62.4473C265.559 62.1426 265.992 61.7324 266.273 61.2168C266.555 60.7012 266.695 60.1094 266.695 59.4414C266.695 58.6914 266.566 58.041 266.309 57.4902C266.062 56.9395 265.664 56.5176 265.113 56.2246C264.562 55.9199 263.836 55.7676 262.934 55.7676H257.854L257.889 52.1465H264.217L265.43 53.5703C266.988 53.5469 268.242 53.8223 269.191 54.3965C270.152 54.959 270.85 55.6914 271.283 56.5938C271.729 57.4961 271.951 58.4629 271.951 59.4941C271.951 61.1348 271.594 62.5176 270.879 63.6426C270.164 64.7559 269.115 65.5938 267.732 66.1562C266.361 66.7188 264.686 67 262.705 67Z" fill="#29166E"/>
<path d="M134.143 107H128.57L128.605 102.887H134.143C135.525 102.887 136.691 102.576 137.641 101.955C138.59 101.322 139.305 100.402 139.785 99.1953C140.277 97.9883 140.523 96.5293 140.523 94.8184V93.5703C140.523 92.2578 140.383 91.1035 140.102 90.1074C139.832 89.1113 139.428 88.2734 138.889 87.5938C138.35 86.9141 137.688 86.4043 136.902 86.0645C136.117 85.7129 135.215 85.5371 134.195 85.5371H128.465V81.4062H134.195C135.906 81.4062 137.471 81.6992 138.889 82.2852C140.318 82.8594 141.555 83.6855 142.598 84.7637C143.641 85.8418 144.443 87.1309 145.006 88.6309C145.58 90.1191 145.867 91.7773 145.867 93.6055V94.8184C145.867 96.6348 145.58 98.293 145.006 99.793C144.443 101.293 143.641 102.582 142.598 103.66C141.566 104.727 140.33 105.553 138.889 106.139C137.459 106.713 135.877 107 134.143 107ZM131.559 81.4062V107H126.285V81.4062H131.559ZM155.307 81.4062V107H150.051V81.4062H155.307ZM173.57 100.303C173.57 99.8457 173.5 99.4355 173.359 99.0723C173.23 98.6973 172.984 98.3574 172.621 98.0527C172.258 97.7363 171.748 97.4258 171.092 97.1211C170.436 96.8164 169.586 96.5 168.543 96.1719C167.383 95.7969 166.281 95.375 165.238 94.9062C164.207 94.4375 163.293 93.8926 162.496 93.2715C161.711 92.6387 161.09 91.9062 160.633 91.0742C160.188 90.2422 159.965 89.2754 159.965 88.1738C159.965 87.1074 160.199 86.1406 160.668 85.2734C161.137 84.3945 161.793 83.6445 162.637 83.0234C163.48 82.3906 164.477 81.9043 165.625 81.5645C166.785 81.2246 168.057 81.0547 169.439 81.0547C171.326 81.0547 172.973 81.3945 174.379 82.0742C175.785 82.7539 176.875 83.6855 177.648 84.8691C178.434 86.0527 178.826 87.4062 178.826 88.9297H173.588C173.588 88.1797 173.43 87.5234 173.113 86.9609C172.809 86.3867 172.34 85.9355 171.707 85.6074C171.086 85.2793 170.301 85.1152 169.352 85.1152C168.438 85.1152 167.676 85.2559 167.066 85.5371C166.457 85.8066 166 86.1758 165.695 86.6445C165.391 87.1016 165.238 87.6172 165.238 88.1914C165.238 88.625 165.344 89.0176 165.555 89.3691C165.777 89.7207 166.105 90.0488 166.539 90.3535C166.973 90.6582 167.506 90.9453 168.139 91.2148C168.771 91.4844 169.504 91.748 170.336 92.0059C171.73 92.4277 172.955 92.9023 174.01 93.4297C175.076 93.957 175.967 94.5488 176.682 95.2051C177.396 95.8613 177.936 96.6055 178.299 97.4375C178.662 98.2695 178.844 99.2129 178.844 100.268C178.844 101.381 178.627 102.377 178.193 103.256C177.76 104.135 177.133 104.879 176.312 105.488C175.492 106.098 174.514 106.561 173.377 106.877C172.24 107.193 170.969 107.352 169.562 107.352C168.297 107.352 167.049 107.188 165.818 106.859C164.588 106.52 163.469 106.01 162.461 105.33C161.465 104.65 160.668 103.783 160.07 102.729C159.473 101.674 159.174 100.426 159.174 98.9844H164.465C164.465 99.7812 164.588 100.455 164.834 101.006C165.08 101.557 165.426 102.002 165.871 102.342C166.328 102.682 166.867 102.928 167.488 103.08C168.121 103.232 168.812 103.309 169.562 103.309C170.477 103.309 171.227 103.18 171.812 102.922C172.41 102.664 172.85 102.307 173.131 101.85C173.424 101.393 173.57 100.877 173.57 100.303ZM193.873 81.4062V107H188.617V81.4062H193.873ZM201.748 81.4062V85.5371H180.865V81.4062H201.748ZM204.754 81.4062H214.299C216.256 81.4062 217.938 81.6992 219.344 82.2852C220.762 82.8711 221.852 83.7383 222.613 84.8867C223.375 86.0352 223.756 87.4473 223.756 89.123C223.756 90.4941 223.521 91.6719 223.053 92.6562C222.596 93.6289 221.945 94.4434 221.102 95.0996C220.27 95.7441 219.291 96.2598 218.166 96.6465L216.496 97.5254H208.199L208.164 93.4121H214.334C215.26 93.4121 216.027 93.248 216.637 92.9199C217.246 92.5918 217.703 92.1348 218.008 91.5488C218.324 90.9629 218.482 90.2832 218.482 89.5098C218.482 88.6895 218.33 87.9805 218.025 87.3828C217.721 86.7852 217.258 86.3281 216.637 86.0117C216.016 85.6953 215.236 85.5371 214.299 85.5371H210.027V107H204.754V81.4062ZM219.062 107L213.227 95.5918L218.799 95.5566L224.705 106.754V107H219.062ZM233.424 81.4062V107H228.168V81.4062H233.424ZM248.383 95.7676H241.809L241.773 92.1465H247.293C248.266 92.1465 249.062 92.0234 249.684 91.7773C250.305 91.5195 250.768 91.1504 251.072 90.6699C251.389 90.1777 251.547 89.5801 251.547 88.877C251.547 88.0801 251.395 87.4355 251.09 86.9434C250.797 86.4512 250.334 86.0938 249.701 85.8711C249.08 85.6484 248.277 85.5371 247.293 85.5371H243.637V107H238.363V81.4062H247.293C248.781 81.4062 250.111 81.5469 251.283 81.8281C252.467 82.1094 253.469 82.5371 254.289 83.1113C255.109 83.6855 255.736 84.4121 256.17 85.291C256.604 86.1582 256.82 87.1895 256.82 88.3848C256.82 89.4395 256.58 90.4121 256.1 91.3027C255.631 92.1934 254.887 92.9199 253.867 93.4824C252.859 94.0449 251.541 94.3555 249.912 94.4141L248.383 95.7676ZM248.154 107H240.367L242.424 102.887H248.154C249.08 102.887 249.836 102.74 250.422 102.447C251.008 102.143 251.441 101.732 251.723 101.217C252.004 100.701 252.145 100.109 252.145 99.4414C252.145 98.6914 252.016 98.041 251.758 97.4902C251.512 96.9395 251.113 96.5176 250.562 96.2246C250.012 95.9199 249.285 95.7676 248.383 95.7676H243.303L243.338 92.1465H249.666L250.879 93.5703C252.438 93.5469 253.691 93.8223 254.641 94.3965C255.602 94.959 256.299 95.6914 256.732 96.5938C257.178 97.4961 257.4 98.4629 257.4 99.4941C257.4 101.135 257.043 102.518 256.328 103.643C255.613 104.756 254.564 105.594 253.182 106.156C251.811 106.719 250.135 107 248.154 107ZM275.488 81.4062H280.744V98.3164C280.744 100.285 280.322 101.943 279.479 103.291C278.646 104.639 277.492 105.652 276.016 106.332C274.551 107.012 272.863 107.352 270.953 107.352C269.043 107.352 267.344 107.012 265.855 106.332C264.379 105.652 263.219 104.639 262.375 103.291C261.543 101.943 261.127 100.285 261.127 98.3164V81.4062H266.4V98.3164C266.4 99.4648 266.582 100.402 266.945 101.129C267.309 101.855 267.83 102.389 268.51 102.729C269.201 103.068 270.016 103.238 270.953 103.238C271.914 103.238 272.729 103.068 273.396 102.729C274.076 102.389 274.592 101.855 274.943 101.129C275.307 100.402 275.488 99.4648 275.488 98.3164V81.4062ZM303.596 102.887V107H285.455V102.887H303.596ZM303.332 84.3418L287.793 107H284.084V103.977L299.746 81.4062H303.332V84.3418ZM301.521 81.4062V85.5371H284.102V81.4062H301.521ZM312.561 81.4062V107H307.305V81.4062H312.561ZM338.523 93.6055V94.8184C338.523 96.7637 338.26 98.5098 337.732 100.057C337.205 101.604 336.461 102.922 335.5 104.012C334.539 105.09 333.391 105.916 332.055 106.49C330.73 107.064 329.26 107.352 327.643 107.352C326.037 107.352 324.566 107.064 323.23 106.49C321.906 105.916 320.758 105.09 319.785 104.012C318.812 102.922 318.057 101.604 317.518 100.057C316.99 98.5098 316.727 96.7637 316.727 94.8184V93.6055C316.727 91.6484 316.99 89.9023 317.518 88.3672C318.045 86.8203 318.789 85.502 319.75 84.4121C320.723 83.3223 321.871 82.4902 323.195 81.916C324.531 81.3418 326.002 81.0547 327.607 81.0547C329.225 81.0547 330.695 81.3418 332.02 81.916C333.355 82.4902 334.504 83.3223 335.465 84.4121C336.438 85.502 337.188 86.8203 337.715 88.3672C338.254 89.9023 338.523 91.6484 338.523 93.6055ZM333.197 94.8184V93.5703C333.197 92.2109 333.074 91.0156 332.828 89.9844C332.582 88.9531 332.219 88.0859 331.738 87.3828C331.258 86.6797 330.672 86.1523 329.98 85.8008C329.289 85.4375 328.498 85.2559 327.607 85.2559C326.717 85.2559 325.926 85.4375 325.234 85.8008C324.555 86.1523 323.975 86.6797 323.494 87.3828C323.025 88.0859 322.668 88.9531 322.422 89.9844C322.176 91.0156 322.053 92.2109 322.053 93.5703V94.8184C322.053 96.166 322.176 97.3613 322.422 98.4043C322.668 99.4355 323.031 100.309 323.512 101.023C323.992 101.727 324.578 102.26 325.27 102.623C325.961 102.986 326.752 103.168 327.643 103.168C328.533 103.168 329.324 102.986 330.016 102.623C330.707 102.26 331.287 101.727 331.756 101.023C332.225 100.309 332.582 99.4355 332.828 98.4043C333.074 97.3613 333.197 96.166 333.197 94.8184ZM363.15 81.4062V107H357.877L347.594 89.8438V107H342.32V81.4062H347.594L357.895 98.5801V81.4062H363.15ZM373.346 81.4062V107H368.09V81.4062H373.346Z" fill="#29166E"/>
</svg>

<svg xmlns="http://www.w3.org/2000/svg" width="376" height="150" fill="none"><path stroke="#29166E" stroke-linejoin="round" stroke-miterlimit="1.305" stroke-width="3" d="M147.573 1.5 75 146.646 2.427 1.5z"/><path fill="#29166E" d="M72.914 99h-7.43l.047-5.484h7.383q2.765 0 4.664-1.243 1.899-1.265 2.86-3.68.984-2.413.984-5.835v-1.664q0-2.626-.563-4.617-.538-1.993-1.617-3.352a6.77 6.77 0 0 0-2.648-2.04q-1.57-.702-3.61-.702h-7.64v-5.508h7.64q3.423 0 6.258 1.172a14.1 14.1 0 0 1 4.945 3.305q2.086 2.156 3.211 5.156 1.149 2.976 1.149 6.633v1.617q0 3.633-1.149 6.633-1.125 3-3.21 5.156-2.064 2.133-4.946 3.305Q76.383 99 72.914 99M69.47 64.875V99h-7.031V64.875z"/><path fill="#C3251D" d="M50.406 29.875V64h-7.031V29.875zM64 44.453v5.484H48.484v-5.484zm1.64-14.578v5.508H48.485v-5.508zM98.422 29.875V64h-7.008V29.875zm10.5 0v5.508H81.078v-5.508z"/><circle cx="19" cy="11" r="3.75" fill="#EDEDED" stroke="#D9D9D9" stroke-width=".5" transform="rotate(-50 19 11)"/><rect width="1.143" height="8" x="16.867" y="14.431" fill="#D9D9D9" rx=".571" transform="rotate(-140 16.867 14.431)"/><circle cx="131" cy="12" r="3.75" fill="#EDEDED" stroke="#D9D9D9" stroke-width=".5" transform="rotate(50 131 12)"/><rect width="1.143" height="8" x="127.991" y="9.303" fill="#D9D9D9" rx=".571" transform="rotate(-40 127.991 9.303)"/><circle cx="75" cy="127" r="3.75" fill="#EDEDED" stroke="#D9D9D9" stroke-width=".5" transform="rotate(-90 75 127)"/><rect width="1.143" height="8" x="75.571" y="131" fill="#D9D9D9" rx=".571" transform="rotate(180 75.571 131)"/><path fill="#C3251D" d="M151.559 41.406V67h-5.274V41.406zm10.195 10.934v4.113h-11.637V52.34zm1.23-10.934v4.131h-12.867v-4.13zm56.76 0V67h-5.256V41.406zm7.875 0v4.131h-20.883v-4.13z"/><path fill="#29166E" d="M183.217 62.887V67h-13.623v-4.113zm-11.901-21.48V67h-5.273V41.406zm10.125 10.423v4.008h-11.847V51.83zm1.758-10.424v4.131h-13.605v-4.13zm3.094 0h9.545q2.936 0 5.045.88 2.127.878 3.269 2.6 1.143 1.724 1.143 4.237 0 2.057-.703 3.533a6.6 6.6 0 0 1-1.951 2.444q-1.248.966-2.936 1.547l-1.67.878h-8.297l-.035-4.113h6.17q1.388 0 2.303-.492a3.23 3.23 0 0 0 1.371-1.371q.474-.879.474-2.04 0-1.23-.457-2.126a3.08 3.08 0 0 0-1.388-1.371q-.932-.475-2.338-.475h-4.272V67h-5.273zM200.602 67l-5.836-11.408 5.572-.035 5.906 11.197V67zm38.531-21.217L232.172 67h-5.608l9.51-25.594h3.569zM244.916 67l-6.978-21.217-.563-4.377h3.604L250.541 67zm-.316-9.527v4.13h-13.518v-4.13zm18.334-1.705h-6.575l-.035-3.621h5.52q1.458 0 2.39-.37.931-.387 1.389-1.107.475-.738.475-1.793 0-1.196-.457-1.934-.44-.739-1.389-1.072-.932-.334-2.408-.334h-3.656V67h-5.274V41.406h8.93q2.232 0 3.99.422 1.776.422 3.006 1.283 1.23.862 1.881 2.18.65 1.301.65 3.094 0 1.582-.721 2.918-.702 1.335-2.232 2.18-1.512.843-3.955.931zM262.705 67h-7.787l2.057-4.113h5.73q1.389 0 2.268-.44.879-.457 1.3-1.23.423-.774.422-1.776 0-1.125-.386-1.95a2.6 2.6 0 0 0-1.196-1.266q-.826-.457-2.179-.457h-5.08l.035-3.621h6.328l1.213 1.423q2.337-.035 3.761.827 1.442.843 2.092 2.197.668 1.353.668 2.9 0 2.46-1.072 4.149-1.072 1.669-3.147 2.513-2.056.844-5.027.844M134.143 107h-5.573l.035-4.113h5.538q2.073 0 3.498-.932 1.424-.95 2.144-2.76.738-1.81.738-4.377V93.57q0-1.968-.421-3.463-.405-1.494-1.213-2.513a5.07 5.07 0 0 0-1.987-1.53q-1.177-.527-2.707-.527h-5.73v-4.13h5.73q2.567 0 4.694.878 2.144.86 3.709 2.479 1.564 1.617 2.408 3.867.861 2.232.861 4.975v1.212q0 2.725-.861 4.975-.844 2.25-2.408 3.867-1.548 1.6-3.709 2.479-2.145.861-4.746.861m-2.584-25.594V107h-5.274V81.406zm23.748 0V107h-5.256V81.406zm18.263 18.897q0-.685-.211-1.23-.194-.564-.738-1.02-.545-.475-1.529-.932t-2.549-.95a32 32 0 0 1-3.305-1.265 13.6 13.6 0 0 1-2.742-1.635 7.4 7.4 0 0 1-1.863-2.197q-.668-1.248-.668-2.9 0-1.6.703-2.9a6.7 6.7 0 0 1 1.969-2.25q1.265-.95 2.988-1.46 1.74-.51 3.814-.51 2.83 0 4.94 1.02t3.269 2.795q1.178 1.776 1.178 4.06h-5.238q0-1.125-.475-1.968-.456-.86-1.406-1.354-.932-.492-2.355-.492-1.371 0-2.286.422-.914.405-1.371 1.107a2.73 2.73 0 0 0-.457 1.547q0 .651.317 1.178.333.528.984.984.65.457 1.6.862.949.405 2.197.79 2.091.634 3.674 1.425 1.6.79 2.672 1.775a6.6 6.6 0 0 1 1.617 2.233q.545 1.247.545 2.83 0 1.67-.651 2.988a6.1 6.1 0 0 1-1.881 2.232q-1.23.915-2.935 1.389-1.705.475-3.815.475a14.4 14.4 0 0 1-3.744-.493 11.4 11.4 0 0 1-3.357-1.529 7.7 7.7 0 0 1-2.391-2.601q-.896-1.582-.896-3.745h5.291q0 1.196.369 2.022a3.4 3.4 0 0 0 1.037 1.336q.686.51 1.617.738a9 9 0 0 0 2.074.229q1.373 0 2.25-.387.897-.387 1.319-1.072.44-.686.439-1.547m20.303-18.897V107h-5.256V81.406zm7.875 0v4.131h-20.883v-4.13zm3.006 0h9.545q2.936 0 5.045.88 2.127.878 3.269 2.6 1.143 1.724 1.143 4.237 0 2.057-.703 3.533a6.6 6.6 0 0 1-1.951 2.444q-1.248.966-2.936 1.547l-1.67.878h-8.297l-.035-4.113h6.17q1.388 0 2.303-.492a3.23 3.23 0 0 0 1.371-1.371q.474-.879.474-2.04 0-1.23-.457-2.126a3.08 3.08 0 0 0-1.388-1.371q-.932-.475-2.338-.475h-4.272V107h-5.273zM219.062 107l-5.835-11.408 5.572-.035 5.906 11.197V107zm14.362-25.594V107h-5.256V81.406zm14.959 14.362h-6.574l-.036-3.621h5.52q1.459 0 2.391-.37.932-.387 1.388-1.107.475-.738.475-1.793 0-1.195-.457-1.934-.44-.738-1.389-1.072-.932-.334-2.408-.334h-3.656V107h-5.274V81.406h8.93q2.232 0 3.99.422 1.776.422 3.006 1.283 1.23.862 1.881 2.18.65 1.3.65 3.094 0 1.581-.72 2.918-.703 1.335-2.233 2.18-1.512.843-3.955.931zM248.154 107h-7.787l2.057-4.113h5.73q1.389 0 2.268-.44.879-.457 1.301-1.23.422-.774.422-1.776 0-1.125-.387-1.95a2.6 2.6 0 0 0-1.196-1.266q-.826-.457-2.179-.457h-5.08l.035-3.621h6.328l1.213 1.423q2.338-.035 3.762.827 1.441.843 2.091 2.197.668 1.353.668 2.9 0 2.462-1.072 4.149-1.073 1.67-3.146 2.513-2.056.844-5.028.844m27.334-25.594h5.256v16.91q0 2.953-1.265 4.975-1.25 2.022-3.463 3.041-2.198 1.02-5.063 1.02t-5.098-1.02q-2.214-1.02-3.48-3.041-1.248-2.022-1.248-4.975v-16.91h5.273v16.91q0 1.723.545 2.813.546 1.09 1.565 1.6 1.037.509 2.443.509 1.442 0 2.443-.509 1.02-.51 1.547-1.6.545-1.09.545-2.813zm28.108 21.481V107h-18.141v-4.113zm-.264-18.545L287.793 107h-3.709v-3.023l15.662-22.57h3.586zm-1.811-2.936v4.131h-17.419v-4.13zm11.04 0V107h-5.256V81.406zm25.962 12.2v1.212q0 2.919-.791 5.239-.79 2.32-2.232 3.955a9.7 9.7 0 0 1-3.445 2.478q-1.987.862-4.412.862-2.409 0-4.413-.862a9.9 9.9 0 0 1-3.445-2.478q-1.459-1.635-2.267-3.955-.792-2.32-.791-5.239v-1.212q0-2.937.791-5.239.79-2.32 2.232-3.955a9.8 9.8 0 0 1 3.445-2.496q2.004-.861 4.412-.861 2.426 0 4.413.861a9.6 9.6 0 0 1 3.445 2.496q1.46 1.635 2.25 3.955.808 2.302.808 5.239m-5.326 1.212V93.57q0-2.039-.369-3.586t-1.09-2.601-1.758-1.582q-1.036-.546-2.373-.545-1.335 0-2.373.545-1.018.527-1.74 1.582-.703 1.054-1.072 2.601-.369 1.548-.369 3.586v1.248q0 2.022.369 3.586.369 1.548 1.09 2.619.72 1.056 1.758 1.6 1.036.545 2.373.545 1.335 0 2.373-.545 1.036-.544 1.74-1.6.703-1.071 1.072-2.619.369-1.564.369-3.586m29.953-13.412V107h-5.273l-10.283-17.156V107h-5.274V81.406h5.274l10.301 17.174V81.406zm10.196 0V107h-5.256V81.406z"/></svg>
